lib/functional/office&editing/cards.svg

<svg xmlns="http://www.w3.org/2000/svg" fill="none" stroke="currentColor" aria-hidden="true" viewBox="0 0 32 32"><g id="Icon-Cards"><g clip-path="url(#clip0_12_2008)"><g id="size=md (32px)"><g id="Cards"><path id="Vector" stroke-linecap="round" stroke-linejoin="round" stroke-width="2" d="M23 10H5C4.44772 10 4 10.4477 4 11V25C4 25.5523 4.44772 26 5 26H23C23.5523 26 24 25.5523 24 25V11C24 10.4477 23.5523 10 23 10Z"/><path id="Vector_2" stroke-linecap="round" stroke-linejoin="round" stroke-width="2" d="M8 6H27C27.2652 6 27.5196 6.10536 27.7071 6.29289C27.8946 6.48043 28 6.73478 28 7V22"/></g></g></g></g><defs><clipPath id="clip0_12_2008"><rect width="32" height="32" fill="white" rx="5"/></clipPath></defs></svg>

<svg xmlns="http://www.w3.org/2000/svg" fill="none" stroke="currentColor" aria-hidden="true" viewBox="0 0 32 32"><g stroke="#101828" stroke-linecap="round" stroke-linejoin="round" stroke-width="2" clip-path="url(#a)"><path d="M23 10H5a1 1 0 0 0-1 1v14a1 1 0 0 0 1 1h18a1 1 0 0 0 1-1V11a1 1 0 0 0-1-1Z"/><path d="M8 6h19a1 1 0 0 1 1 1v15"/></g><defs><clipPath id="a"><rect width="32" height="32" fill="#fff" rx="5"/></clipPath></defs></svg>
